X:54
T:Dust Bunnies
M:C|
L:1/8
C:© Paul Gitlitz 2008
R:Reel
K:Am
"Am7"A,2-A,<B, C2-C<B,|"C6" C2-C<A,-A,4-|"Bm11"A,2 A,E2-E_E2-|"E7"_E2D2C4|!
"Am7"A,2-A,<C E2-E<C|"Bm7"D2-D<B,G2-G<B,|1"C6"D2-D<C-C3B,-|"E7"B,8:|2"G7"G,2-G,<"G#7"^G,-G,3A,-|"Am7"A,8|!
|:"Asus4"B2a4B2 |"C6"c2a4c2|"Asus4/D"B2a4B2 |"Am7/E"A4G4|!
"Asus4"B2a4B2 |"C6"c2a4c2| "Bm7"d4c2B2 |"Am7"A8:|
